assets/Sandwich/Flat/sandwich_flat.svg

<svg width="32" height="32" viewBox="0 0 32 32" fill="none" xmlns="http://www.w3.org/2000/svg">
<path d="M26.0999 19.07L17.0199 13.82C16.3899 13.45 15.5999 13.45 14.9699 13.82L5.88993 19.07H3.42993V21.61C3.42993 21.93 3.58993 22.25 3.90993 22.43L14.9799 28.83C15.6099 29.2 16.3999 29.2 17.0299 28.83L28.0999 22.43C28.4199 22.25 28.5799 21.93 28.5799 21.61V19.07H26.0999Z" fill="#E19747"/>
<path d="M14.97 11.73L3.89999 18.13C3.26999 18.5 3.26999 19.41 3.89999 19.78L14.97 26.18C15.6 26.55 16.39 26.55 17.02 26.18L28.09 19.78C28.72 19.41 28.72 18.5 28.09 18.13L17.02 11.73C16.39 11.37 15.61 11.37 14.97 11.73Z" fill="#FEEFC2"/>
<path d="M7.92002 24C4.22002 21.86 4.22002 16.52 7.92002 14.38C9.93002 13.22 12.41 13.22 14.42 14.38C15.056 14.7478 15.5826 15.2102 16 15.7346C16.4173 15.2102 16.944 14.7478 17.5799 14.38C19.5899 13.22 22.0599 13.22 24.0799 14.38C27.7799 16.52 27.7799 21.86 24.0799 24C22.0699 25.16 19.5899 25.16 17.5799 24C16.944 23.6322 16.4173 23.1698 16 22.6454C15.5826 23.1698 15.056 23.6322 14.42 24C12.41 25.16 9.93002 25.16 7.92002 24Z" fill="#F8312F"/>
<path d="M22.94 16.09C20.97 15.33 18.33 16.27 18.04 18.92C17.53 18.55 16.91 18.32 16.25 18.28C16.19 18.28 16.13 18.27 16.07 18.27C16.05 18.27 16.02 18.27 16 18.27C15.98 18.27 15.95 18.27 15.93 18.27C15.87 18.27 15.81 18.27 15.75 18.28C15.09 18.33 14.47 18.56 13.96 18.92C13.67 16.28 11.03 15.33 9.06003 16.09C8.37003 12.09 2.10003 12.31 2.03003 16.74C2.07003 19.25 4.11003 20.41 5.99003 20.21C6.52003 20.15 7.02003 20.43 7.25003 20.91C8.00003 22.5 9.83003 23.1 11.4 22.7C11.92 22.57 12.46 22.77 12.74 23.21C13.25 24.4 14.39 25.25 15.74 25.35C15.74 25.35 15.74 25.35 15.75 25.35C15.83 25.36 15.91 25.36 16 25.36C16 25.36 16 25.36 16.01 25.36C16.02 25.36 16.01 25.36 16.02 25.36C16.1 25.36 16.18 25.36 16.27 25.35C16.27 25.35 16.27 25.35 16.28 25.35C17.63 25.25 18.77 24.4 19.28 23.21C19.56 22.77 20.1 22.57 20.62 22.7C22.18 23.1 24.02 22.5 24.77 20.91C25 20.43 25.5 20.15 26.03 20.21C27.91 20.41 29.94 19.25 29.99 16.74C29.89 12.31 23.63 12.09 22.94 16.09Z" fill="#44911B"/>
<path d="M14.97 7.84L3.89999 14.24C3.26999 14.61 3.26999 15.52 3.89999 15.89L14.97 22.29C15.6 22.66 16.39 22.66 17.02 22.29L28.09 15.89C28.72 15.52 28.72 14.61 28.09 14.24L17.02 7.84C16.39 7.47 15.61 7.47 14.97 7.84Z" fill="#FCD53F"/>
<path d="M26.0999 10.62L17.0199 5.37C16.3899 5 15.6099 5 14.9699 5.37L5.88993 10.62H3.42993V13.16C3.42993 13.48 3.58993 13.8 3.90993 13.98L14.9799 20.38C15.6099 20.75 16.3999 20.75 17.0299 20.38L28.0999 13.98C28.4199 13.8 28.5799 13.48 28.5799 13.16V10.62H26.0999Z" fill="#E19747"/>
<path d="M14.97 3.28001L3.91 9.67001C3.28 10.04 3.28 10.95 3.91 11.32L14.98 17.72C15.61 18.09 16.4 18.09 17.03 17.72L28.1 11.32C28.73 10.95 28.73 10.04 28.1 9.67001L17.03 3.27001C16.39 2.91001 15.61 2.91001 14.97 3.28001Z" fill="#FEEFC2"/>
</svg>

<svg xmlns="http://www.w3.org/2000/svg" width="32" height="32" fill="none"><path fill="#E19747" d="m26.1 19.07-9.08-5.25c-.63-.37-1.42-.37-2.05 0l-9.08 5.25H3.43v2.54c0 .32.16.64.48.82l11.07 6.4c.63.37 1.42.37 2.05 0l11.07-6.4c.32-.18.48-.5.48-.82v-2.54H26.1Z"/><path fill="#FEEFC2" d="M14.97 11.73 3.9 18.13a.956.956 0 0 0 0 1.65l11.07 6.4c.63.37 1.42.37 2.05 0l11.07-6.4a.956.956 0 0 0 0-1.65l-11.07-6.4a2.08 2.08 0 0 0-2.05 0Z"/><path fill="#F8312F" d="M7.92 24c-3.7-2.14-3.7-7.48 0-9.62a6.505 6.505 0 0 1 6.5 0c.636.368 1.163.83 1.58 1.355a5.574 5.574 0 0 1 1.58-1.355 6.505 6.505 0 0 1 6.5 0c3.7 2.14 3.7 7.48 0 9.62a6.505 6.505 0 0 1-6.5 0A5.574 5.574 0 0 1 16 22.645 5.574 5.574 0 0 1 14.42 24a6.505 6.505 0 0 1-6.5 0Z"/><path fill="#44911B" d="M22.94 16.09c-1.97-.76-4.61.18-4.9 2.83-.51-.37-1.13-.6-1.79-.64-.06 0-.12-.01-.18-.01h-.14c-.06 0-.12 0-.18.01-.66.05-1.28.28-1.79.64-.29-2.64-2.93-3.59-4.9-2.83-.69-4-6.96-3.78-7.03.65.04 2.51 2.08 3.67 3.96 3.47.53-.06 1.03.22 1.26.7C8 22.5 9.83 23.1 11.4 22.7c.52-.13 1.06.07 1.34.51a3.55 3.55 0 0 0 3 2.14h.01c.08.01.16.01.25.01h.02c.08 0 .16 0 .25-.01h.01a3.55 3.55 0 0 0 3-2.14c.28-.44.82-.64 1.34-.51 1.56.4 3.4-.2 4.15-1.79.23-.48.73-.76 1.26-.7 1.88.2 3.91-.96 3.96-3.47-.1-4.43-6.36-4.65-7.05-.65Z"/><path fill="#FCD53F" d="M14.97 7.84 3.9 14.24a.956.956 0 0 0 0 1.65l11.07 6.4c.63.37 1.42.37 2.05 0l11.07-6.4a.956.956 0 0 0 0-1.65l-11.07-6.4c-.63-.37-1.41-.37-2.05 0Z"/><path fill="#E19747" d="m26.1 10.62-9.08-5.25c-.63-.37-1.41-.37-2.05 0l-9.08 5.25H3.43v2.54c0 .32.16.64.48.82l11.07 6.4c.63.37 1.42.37 2.05 0l11.07-6.4c.32-.18.48-.5.48-.82v-2.54H26.1Z"/><path fill="#FEEFC2" d="M14.97 3.28 3.91 9.67a.956.956 0 0 0 0 1.65l11.07 6.4c.63.37 1.42.37 2.05 0l11.07-6.4a.956.956 0 0 0 0-1.65l-11.07-6.4c-.64-.36-1.42-.36-2.06.01Z"/></svg>
